X:1
T:No Shadows Yonder
T:No Shadows Yonder
T:Alfred Robert Gaul, from “The Holy City”
T:Horatius Bonar, 1857
T:Public Domain Courtesy of the Cyber Hymnal™
C:Alfred Robert Gaul, from “The Holy City”
Z:Public Domain
Z:Courtesy of the Cyber Hymnal™
%%score ( 1 2 ) 3
L:1/8
Q:1/4=115
M:4/4
K:G
V:1 treble 
V:2 treble 
V:3 bass 
V:1
 [DB]4 [EA]2 E2 | [DF]4 D4 | [DG]4 [DA]2 [DA]2 | [DB]8 | [Ee]4 [=Fd]2 [FB]2 | [Ec]4 [EA]2 [EA]2 | %6
w: 1.~No sha- dows|yon- der!|All light and|song!|Each day I|won- der, and|
w: 2.~No weep- ing|yon- der!|All fled a-|way!|While here I|wan- der, each|
w: 3.~No part- ing|yon- der!|No space or|time|Shall hearts e’er|sun- der, in|
w: 4.~None want- ing|yon- der!|Bought by the|Lamb,|All ga- thered|un- der the|
 [DF]4 [DG]4 | [DA]6 [DA]2 | [DB]4 [^DB]4 | [Ee]4 [Ec]2 E2 | [DG]4 [CF]4 | [B,G]8 |] %12
w: say, “How|long Shall|time me|sun- der from|that dear|throng?”|
w: wea- ry|day, I|sigh and|pon- der my|long, long|stay.|
w: that fair|clime, Dear-|er~and fon-|der— in friend-|ship sub-|lime.|
w: ever- green|palm. Loud|as night’s|thun- der swells|out~the glad|psalm.|
V:2
 x6 E2 | x4 D4 | x8 | x8 | x8 | x8 | x8 | x8 | x8 | x6 E2 | x8 | x8 |] %12
V:3
 [G,B,]4 [G,C]2 [G,C]2 | [A,C]4 [F,C]4 | [G,B,]4 [D,F,]2 [D,F,]2 | [G,,G,]8 | %4
 [C,G,]4 [C,^G,]2 [C,G,]2 | [C,A,]4 [C,C]2 [C,C]2 | [D,C]4 [E,C]4 | [F,C]6 [F,C]2 | %8
 [G,B,]4 [F,A,]4 | [E,^G,]4 [A,,A,]2 [C,A,]2 | [D,A,]4 [D,A,]4 | [G,,G,]8 |] %12

